X: 433
T: A Trip To Woodnote
R: jig
M: 6/8
K: Gmajor
|:GEF G2A|Bde dBA|GEF G2A|BAG A2B|
GEF G2A|Bde def|gfe dBA|1 AGF GBA:|2 AGF GBd||
|:~g3 agf|ege dBd|gab agf|ege def|
~g3 agf|ege dBA|GEF G2A|1 Bde def:|2 Bde dBA||

